images/5606c245e67c4a89489dcb8b_webflow--blue.svg

<?xml version="1.0" encoding="UTF-8" standalone="no"?>
<svg width="87px" height="22px" viewBox="0 0 87 22" version="1.1" xmlns="http://www.w3.org/2000/svg" xmlns:xlink="http://www.w3.org/1999/xlink" xmlns:sketch="http://www.bohemiancoding.com/sketch/ns">
    <!-- Generator: Sketch 3.3.3 (12072) - http://www.bohemiancoding.com/sketch -->
    <title>webflow--blue</title>
    <desc>Created with Sketch.</desc>
    <defs></defs>
    <g id="Page-1" stroke="none" stroke-width="1" fill="none" fill-rule="evenodd" sketch:type="MSPage">
        <g id="webflow--blue" sketch:type="MSArtboardGroup" fill="#3B67B3">
            <path d="M52.4718955,0.130529504 L50.3619123,17.147086 L50.356746,17.1439647 L49.92827,19.2480283 C49.9852064,19.2515801 50.0427886,19.2534098 50.1006937,19.2536251 L50.1006937,19.2540556 C52.3722299,19.2261794 53.9835623,17.2329749 54.2875101,14.7188401 L55.5067454,4.95182619 C55.8761324,1.97724919 54.1018479,0.130529504 52.4718955,0.130529504 L52.4718955,0.130529504 Z M82.378465,9.2849121 C82.378465,9.2849121 80.9241652,13.8449902 80.8120145,14.2276157 C80.7718684,13.8449902 79.7080511,5.65357537 79.7080511,5.65357537 C77.2311564,5.65357537 75.9067662,7.41354508 75.2077078,9.28275949 C75.2077078,9.28275949 73.4398811,13.8566142 73.2958718,14.2395627 C73.2875843,13.8805082 73.024536,9.3301168 73.024536,9.3301168 C72.8748223,7.04340468 70.7863651,5.65960266 69.0950635,5.65960266 L71.1292751,18.0693695 C73.7276844,18.061082 75.1192358,16.3044488 75.8529511,14.4381404 C75.8529511,14.4381404 77.4090691,10.4032979 77.4727863,10.219896 C77.4889308,10.3950104 78.5912797,18.0698001 78.5912797,18.0698001 C81.1921645,18.0698001 82.5952324,16.4247795 83.3504738,14.6259552 L87,5.65960266 C84.4292517,5.65960266 83.0766624,7.41462138 82.378465,9.2849121 L82.378465,9.2849121 Z M64.3216623,11.6674151 C64.1715181,13.1876923 63.5010893,15.4846293 61.6686844,15.4846293 C59.8292836,15.4846293 60.0910403,12.7893528 60.2689531,11.5103826 C60.4592434,10.1388504 61.2306293,8.19741613 62.8698379,8.19741613 C64.3510453,8.19741613 64.4912875,9.9508204 64.3216623,11.6674151 L64.3216623,11.6674151 Z M63.1478468,5.44444981 C60.2523781,5.44444981 57.5227675,7.57531333 56.684005,10.9279954 C55.8455654,14.2801393 57.119477,18.2377032 61.3762531,18.2377032 C65.6329215,18.2377032 68.0787111,14.1129895 68.0787111,10.6866884 C68.0787111,7.2595262 65.7619702,5.44444981 63.1478468,5.44444981 L63.1478468,5.44444981 Z M50.1063981,5.66024844 L47.5943082,5.66024844 L47.6064704,5.52872428 C47.777172,3.88811651 48.1705605,3.02707457 49.4424271,2.89522753 C50.3108955,2.80524864 50.7036383,2.35363215 50.7950163,1.86617478 C50.867021,1.48333401 51.1094043,0.130529504 51.1094043,0.130529504 C46.0692953,0.101576969 44.4886376,2.27721468 44.0858852,5.58436912 L44.076629,5.65960266 L44.0267962,5.66067896 C43.2083759,5.66067896 42.3098786,6.58748297 42.1530613,7.76409678 L42.097847,8.19741613 L43.7736499,8.19741613 L42.3667074,19.8438693 L41.940384,21.9371699 C41.997428,21.9408293 42.0550102,21.9426591 42.1131305,21.9428743 C44.4663581,21.8537565 45.9807156,19.9978882 46.3147999,17.295831 L47.4131665,8.19741613 L48.2008046,8.19741613 C48.9717601,8.19763139 49.8780067,7.42452337 50.0450488,6.13285283 L50.1063981,5.66024844 L50.1063981,5.66024844 Z M37.308086,11.7668655 C36.9359006,13.9567104 35.7187102,15.4332897 34.5398362,15.4332897 C33.3521365,15.4332897 32.8503643,14.9084846 32.8503643,14.9084846 C33.071652,12.9940655 33.2188902,11.8198196 33.6515638,10.809064 C34.0842374,9.79798546 35.1051102,8.18396235 36.1745243,8.18396235 C37.2135866,8.18396235 37.680379,9.5785274 37.308086,11.7668655 L37.308086,11.7668655 Z M37.6377574,5.37104598 C36.0393407,5.37104598 34.8070821,6.23962203 33.7702799,7.52300504 L33.7718944,7.51374884 L34.6935322,0.0571256787 C32.5651441,0.0571256787 30.8264852,1.90954977 30.4957375,4.65874904 L28.8767634,17.97261 C30.1045015,17.9730405 31.4047825,17.6164615 32.1077156,16.7135514 C32.7357381,17.5213164 33.669538,18.1641918 35.0525867,18.1641918 C38.6420552,18.1641918 41.1087251,13.9922284 41.1087251,10.0751333 C41.1087251,6.50105589 39.3696357,5.37104598 37.6377574,5.37104598 L37.6377574,5.37104598 Z M13.2834016,9.2849121 C13.2834016,9.2849121 11.8291017,13.8449902 11.7171663,14.2276157 C11.6773431,13.8449902 10.6129876,5.65357537 10.6129876,5.65357537 C8.1362005,5.65357537 6.81148749,7.41354508 6.11307485,9.28275949 C6.11307485,9.28275949 4.3448176,13.8566142 4.20113123,14.2395627 C4.19295133,13.8805082 3.92936487,9.3301168 3.92936487,9.3301168 C3.77975883,7.04340468 1.69151688,5.65960266 1.77635684e-15,5.65960266 L2.03464209,18.0693695 C4.63315902,18.061082 6.02417227,16.3044488 6.75821052,14.4381404 C6.75821052,14.4381404 8.31400566,10.4032979 8.37815329,10.219896 C8.39408256,10.3950104 9.49664676,18.0698001 9.49664676,18.0698001 C12.0973163,18.0698001 13.5003841,16.4247795 14.2557332,14.6259552 L17.9051518,5.65960266 C15.3344035,5.65960266 13.9815989,7.41462138 13.2834016,9.2849121 L13.2834016,9.2849121 Z M24.7356898,8.86838306 C24.6918843,9.35045891 24.4945981,10.1830865 21.0732479,10.641376 C21.7950163,8.07934576 23.1711766,7.88905549 23.8069485,7.88905549 C24.4025742,7.88905549 24.7826166,8.35132738 24.7356898,8.86838306 L24.7356898,8.86838306 Z M28.0867574,8.60737972 C28.0867574,7.04426572 26.572077,5.38762104 23.9456838,5.38762104 C20.9950008,5.38762104 17.7581289,7.54775999 17.2576482,11.8640556 C16.7518937,16.2283543 19.4691268,18.1562272 22.1983069,18.1562272 C24.9275945,18.1562272 26.3645659,17.0928404 27.8234938,15.6670625 C26.563359,14.080808 24.9387881,14.8194744 24.6312885,14.9733856 C24.2914998,15.1437643 23.8460182,15.3795822 22.9403098,15.3795822 C21.8824121,15.3795822 20.8098767,14.901381 20.8098767,12.9378825 C27.5714238,12.2897332 28.0867574,10.1702785 28.0867574,8.60737972 L28.0867574,8.60737972 Z" id="Fill-4" sketch:type="MSShapeGroup"></path>
        </g>
    </g>
</svg>

<svg xmlns="http://www.w3.org/2000/svg" width="87" height="22"><title>webflow--blue</title><desc>Created with Sketch.</desc><g fill="none"><g fill="#3B67B3"><path d="M52.47.13l-2.1 17.02-.44 2.1c.06 0 .1 0 .17 0 2.27-.02 3.88-2.02 4.2-4.53l1.2-9.77C55.9 1.98 54.1.13 52.48.13zm29.9 9.15s-1.45 4.56-1.56 4.95c-.03-.4-1.1-8.58-1.1-8.58-2.47 0-3.8 1.76-4.5 3.63 0 0-1.76 4.58-1.9 4.96 0-.36-.28-4.9-.28-4.9-.15-2.3-2.23-3.68-3.92-3.68l2.03 12.4c2.6 0 4-1.76 4.72-3.62 0 0 1.56-4.04 1.62-4.22.02.18 1.12 7.85 1.12 7.85 2.6 0 4-1.65 4.75-3.44L87 5.66c-2.57 0-3.92 1.75-4.62 3.62zm-18.05 2.4c-.15 1.5-.82 3.8-2.65 3.8-1.84 0-1.58-2.7-1.4-3.97.2-1.36.96-3.3 2.6-3.3 1.48 0 1.62 1.75 1.45 3.47zm-1.17-6.24c-2.9 0-5.63 2.14-6.47 5.5-.83 3.34.44 7.3 4.7 7.3 4.25 0 6.7-4.13 6.7-7.55 0-3.44-2.32-5.26-4.93-5.26zm-13.04.22h-2.5v-.13c.18-1.64.57-2.5 1.84-2.63.87-.1 1.26-.55 1.36-1.03.07-.4.3-1.74.3-1.74-5.03-.03-6.6 2.15-7 5.45l-.02.08h-.05c-.82 0-1.72.93-1.88 2.1l-.05.44h1.67l-1.4 11.64-.43 2.1c.06 0 .12 0 .17 0 2.37-.1 3.88-1.94 4.2-4.64l1.1-9.1h.8c.77 0 1.68-.78 1.85-2.07l.06-.47zm-12.8 6.1c-.36 2.2-1.58 3.67-2.76 3.67-1.2 0-1.7-.52-1.7-.52.23-1.9.38-3.08.8-4.1.44-1 1.47-2.62 2.53-2.62 1.04 0 1.5 1.4 1.14 3.6zm.34-6.4c-1.6 0-2.83.88-3.87 2.16L34.7.05c-2.13 0-3.87 1.85-4.2 4.6l-1.62 13.3c1.22 0 2.52-.34 3.23-1.25.64.82 1.57 1.46 2.95 1.46 3.6 0 6.06-4.17 6.06-8.08 0-3.58-1.73-4.7-3.46-4.7zM13.28 9.3s-1.45 4.56-1.56 4.95c-.04-.4-1.1-8.58-1.1-8.58-2.48 0-3.8 1.76-4.5 3.63 0 0-1.78 4.58-1.92 4.96 0-.36-.27-4.9-.27-4.9C3.78 7.03 1.7 5.65 0 5.65l2.03 12.4c2.6 0 4-1.76 4.73-3.62 0 0 1.55-4.04 1.62-4.22 0 .18 1.12 7.85 1.12 7.85 2.6 0 4-1.65 4.76-3.44l3.65-8.97c-2.57 0-3.92 1.75-4.62 3.62zm11.46-.4c-.05.47-.25 1.3-3.67 1.76.73-2.56 2.1-2.75 2.74-2.75.6 0 .98.45.94.97zm3.35-.27c0-1.56-1.53-3.2-4.15-3.2-2.95 0-6.2 2.15-6.7 6.46-.5 4.37 2.22 6.3 4.95 6.3s4.16-1.07 5.62-2.5c-1.26-1.58-2.88-.84-3.2-.7-.33.18-.77.42-1.68.42-1.06 0-2.13-.48-2.13-2.44 6.77-.65 7.3-2.77 7.3-4.33z"/></g></g></svg>
